X: 4783
T: Boys Of Portaferry, The
R: reel
M: 4/4
K: Eminor
|:G2 BG Ac BA|G2AG GE DE|G2 BG AB cd|dB GB Ac BA|
G2 BG Ac BA|G2AG GE DE|G2 BG AB cd|dB AB G3 A|
(3Bcd gd ed gd|Bd gd eg dc|Bd gd ed ef|ge dB cA BA|
(3Bcd gd ed gd|Bd gd eg dc|Bd gd ed ef|ge dB cA BA:|

